symbolic/64x64/apps/gdm-xnest.svg

<svg xmlns="http://www.w3.org/2000/svg" width="64" height="64" version="1">
 <path style="opacity:0.2" d="m 4.0000004,51.12407 0,1.999971 C 4.0000004,54.718018 5.2495825,56 6.8007604,56 L 57.20004,56 C 58.750017,56 60,54.718018 60,53.124041 l 0,-1.999971 c 0,1.593977 -1.249983,2.875959 -2.79996,2.875959 l -50.3992796,0 c -1.5503779,0 -2.79996,-1.281982 -2.79996,-2.875959 z"/>
 <rect style="fill:#e4e4e4" width="45.999" height="56" x="-55" y="-60" rx="2.876" ry="2.8" transform="matrix(0,-1,-1,0,0,0)"/>
 <path style="fill:#4d4d4d" d="m 14.667848,19.000543 c -1.477379,0 -2.667962,1.115984 -2.667962,2.499965 l 0,20.999699 c 0,1.383981 1.190583,2.499965 2.667962,2.499965 l 34.663504,0 c 1.477979,0 2.667962,-1.115984 2.667962,-2.499965 l 0,-20.999699 c 0,-1.383981 -1.189983,-2.499965 -2.667962,-2.499965 l -34.663504,0 z"/>
 <path style="opacity:0.2;fill:#ffffff" d="M 6.8007812 9 C 5.2496034 9 4 10.282223 4 11.875 L 4 12.876953 C 4 11.284176 5.2496034 10.001953 6.8007812 10.001953 L 57.199219 10.001953 C 58.749196 10.001953 60 11.284176 60 12.876953 L 60 11.875 C 60 10.282223 58.749196 9 57.199219 9 L 6.8007812 9 z"/>
</svg>

<svg xmlns="http://www.w3.org/2000/svg" width="64" height="64" version="1"><path style="opacity:.2" d="M4 51.124v2C4 54.718 5.25 56 6.8 56h50.4c1.55 0 2.8-1.282 2.8-2.876v-2C60 52.718 58.75 54 57.2 54H6.8C5.25 54 4 52.718 4 51.124z"/><rect style="fill:#e4e4e4" width="45.999" height="56" x="-55" y="-60" rx="2.876" ry="2.8" transform="matrix(0 -1 -1 0 0 0)"/><path style="fill:#4d4d4d" d="M14.668 19C13.19 19 12 20.118 12 21.5v21c0 1.384 1.19 2.5 2.668 2.5H49.33C50.81 45 52 43.884 52 42.5v-21c0-1.383-1.19-2.5-2.668-2.5H14.668z"/><path style="opacity:.2;fill:#fff" d="M6.8 9C5.25 9 4 10.282 4 11.875v1.002c0-1.593 1.25-2.875 2.8-2.875h50.4c1.55 0 2.8 1.282 2.8 2.875v-1.002C60 10.282 58.75 9 57.2 9H6.8z"/></svg>
